24x24/actions/text-field-framed.svg

<svg xmlns="http://www.w3.org/2000/svg" width="24" height="24"><defs><style type="text/css" id="current-color-scheme">.ColorScheme-Text{color:#555e70}</style></defs><path style="fill-opacity:1;stroke:none;fill:currentColor" class="ColorScheme-Text" d="M4 5v1h2v10H4v1h5v-1H7V6h2V5H4zm5 8v2h8v-2h-1v1h-6v-1H9z" transform="translate(1 1)"/><path style="fill-opacity:1;stroke:none;fill-rule:evenodd;fill:currentColor" class="ColorScheme-Text" d="M2 3h18v16H2V3zm1 1h16v14H3V4z" transform="translate(1 1)"/></svg>

<!DOCTYPE svg>
<svg xmlns="http://www.w3.org/2000/svg" viewBox="0 0 24 24" version="1.1" width="24" height="24">
  <defs>
    <style type="text/css" id="current-color-scheme">
            .ColorScheme-Text {
                color:#555e70;
            }
        </style>
  </defs>
  <g transform="translate(1,1)">
    <path style="fill-opacity:1; stroke:none; fill:currentColor" class="ColorScheme-Text" d="M 4 5 L 4 6 L 6 6 L 6 16 L 4 16 L 4 17 L 9 17 L 9 16 L 7 16 L 7 6 L 9 6 L 9 5 L 4 5 Z M 9 13 L 9 15 L 10 15 L 16 15 L 17 15 L 17 14 L 17 13 L 16 13 L 16 14 L 10 14 L 10 13 L 9 13 Z"/>
    <path style="fill-opacity:1; stroke:none; fill-rule:evenodd; fill:currentColor" class="ColorScheme-Text" d="M 2 3 L 20 3 L 20 19 L 2 19 L 2 3 Z M 3 4 L 19 4 L 19 18 L 3 18 L 3 4 Z"/>
  </g>
</svg>
